X:251
T: EIN GETREUES HERZ ZU WISSEN
N: B0300
O: Europa, Mitteleuropa, Deutschland
R: Stimmungs - Lied, Freude, Freundschaft, Treue
M: 4/4
L: 1/8
K: C
C2E2 | G3EDEFG | FEE2
G2G2 | c3BAGFE | D4
G2B2 | d3BABcd | cBB2
D2G2 | E2c2B2A2 | G4
G2G2 | c2G2A2A2 | G4
E2G2 | c2e2d3B | c4

@@@ Tune index: 2054
